%
(1001)
(T2 D=1.54 CR=0 - ZMIN=-4.8 - flat end mill)
G90
G17
G21
(When using Fusion 360 for Personal Use, the feedrate of)
(rapid moves is reduced to match the feedrate of cutting)
(moves, which can increase machining time. Unrestricted rapid)
(moves are available with a Fusion 360 Subscription.)
G28 G91 Z0
G90

(Pocket1)
T2 M6
S5000 M3
G54
M7
G0 X0.141 Y0.362
Z15
G1 Z1.154 F1000
Z0.316 F333.33
X0.135 Y0.352 Z0.258
X0.121 Y0.324 Z0.209
X0.101 Y0.28 Z0.175
X0.081 Y0.226 Z0.162
G3 X1.473 Y-0.226 Z0.085 I0.696 J-0.226
X0.081 Y0.226 Z0.008 I-0.696 J0.226
X1.473 Y-0.226 Z-0.069 I0.696 J-0.226
X0.891 Y0.723 Z-0.112 I-0.696 J0.226
X0.045 Y0 Z-0.154 I-0.114 J-0.723
X0.879 I0.417 J0 F1000
X-0.879 I-0.879 J0
X1.803 I1.341 J0
X-1.803 I-1.803 J0
X1.803 I1.803 J0
G2 X2.152 Y0.618 I0.722 J0
G3 X2.347 Y1.301 I-0.27 J0.446
G1 X2.196 Y1.595
X1.595 Y2.196
X0.839 Y2.581
X0 Y2.714
X-0.827 Y2.583
X-1.016 Y2.491
X-1.595 Y2.196
X-2.196 Y1.595
X-2.581 Y0.839
X-2.714 Y0
X-2.581 Y-0.839
X-2.196 Y-1.595
X-1.595 Y-2.196
X-0.839 Y-2.581
X0 Y-2.714
X0.827 Y-2.583
X1.016 Y-2.491
X1.595 Y-2.196
X2.196 Y-1.595
X2.581 Y-0.839
X2.714 Y0
X2.583 Y0.827
X2.491 Y1.016
X2.346 Y1.3
X2.329 Y1.322
X2.305 Y1.337
X2.278 Y1.342
X2.251 Y1.336
X2.227 Y1.321
X1.956 Y1.071
X0.17 Y-0.138
X0.082 Y-0.161
X0.071 Y-0.17
X0.069 Y-0.184
G3 X1.485 Y0.184 Z-0.234 I0.708 J0.184 F333.33
X0.045 Y0 Z-0.308 I-0.708 J-0.184
X0.879 I0.417 J0 F1000
X-0.879 I-0.879 J0
X1.803 I1.341 J0
X-1.803 I-1.803 J0
X1.803 I1.803 J0
G2 X2.152 Y0.618 I0.722 J0
G3 X2.347 Y1.301 I-0.27 J0.446
G1 X2.196 Y1.595
X1.595 Y2.196
X0.839 Y2.581
X0 Y2.714
X-0.827 Y2.583
X-1.016 Y2.491
X-1.595 Y2.196
X-2.196 Y1.595
X-2.581 Y0.839
X-2.714 Y0
X-2.581 Y-0.839
X-2.196 Y-1.595
X-1.595 Y-2.196
X-0.839 Y-2.581
X0 Y-2.714
X0.827 Y-2.583
X1.016 Y-2.491
X1.595 Y-2.196
X2.196 Y-1.595
X2.581 Y-0.839
X2.714 Y0
X2.583 Y0.827
X2.491 Y1.016
X2.346 Y1.3
X2.329 Y1.322
X2.305 Y1.337
X2.278 Y1.342
X2.251 Y1.336
X2.227 Y1.321
X1.956 Y1.071
X0.17 Y-0.138
X0.082 Y-0.161
X0.071 Y-0.17
X0.069 Y-0.184
G3 X1.485 Y0.184 Z-0.388 I0.708 J0.184 F333.33
X0.045 Y0 Z-0.462 I-0.708 J-0.184
X0.879 I0.417 J0 F1000
X-0.879 I-0.879 J0
X1.803 I1.341 J0
X-1.803 I-1.803 J0
X1.803 I1.803 J0
G2 X2.152 Y0.618 I0.722 J0
G3 X2.347 Y1.301 I-0.27 J0.446
G1 X2.196 Y1.595
X1.595 Y2.196
X0.839 Y2.581
X0 Y2.714
X-0.827 Y2.583
X-1.016 Y2.491
X-1.595 Y2.196
X-2.196 Y1.595
X-2.581 Y0.839
X-2.714 Y0
X-2.581 Y-0.839
X-2.196 Y-1.595
X-1.595 Y-2.196
X-0.839 Y-2.581
X0 Y-2.714
X0.827 Y-2.583
X1.016 Y-2.491
X1.595 Y-2.196
X2.196 Y-1.595
X2.581 Y-0.839
X2.714 Y0
X2.583 Y0.827
X2.491 Y1.016
X2.346 Y1.3
X2.329 Y1.322
X2.305 Y1.337
X2.278 Y1.342
X2.251 Y1.336
X2.227 Y1.321
X1.956 Y1.071
X0.17 Y-0.138
X0.082 Y-0.161
X0.071 Y-0.17
X0.069 Y-0.184
G3 X1.485 Y0.184 Z-0.542 I0.708 J0.184 F333.33
X0.045 Y0 Z-0.616 I-0.708 J-0.184
X0.879 I0.417 J0 F1000
X-0.879 I-0.879 J0
X1.803 I1.341 J0
X-1.803 I-1.803 J0
X1.803 I1.803 J0
G2 X2.152 Y0.618 I0.722 J0
G3 X2.347 Y1.301 I-0.27 J0.446
G1 X2.196 Y1.595
X1.595 Y2.196
X0.839 Y2.581
X0 Y2.714
X-0.827 Y2.583
X-1.016 Y2.491
X-1.595 Y2.196
X-2.196 Y1.595
X-2.581 Y0.839
X-2.714 Y0
X-2.581 Y-0.839
X-2.196 Y-1.595
X-1.595 Y-2.196
X-0.839 Y-2.581
X0 Y-2.714
X0.827 Y-2.583
X1.016 Y-2.491
X1.595 Y-2.196
X2.196 Y-1.595
X2.581 Y-0.839
X2.714 Y0
X2.583 Y0.827
X2.491 Y1.016
X2.346 Y1.3
X2.329 Y1.322
X2.305 Y1.337
X2.278 Y1.342
X2.251 Y1.336
X2.227 Y1.321
X1.956 Y1.071
X0.17 Y-0.138
X0.082 Y-0.161
X0.071 Y-0.17
X0.069 Y-0.184
G3 X1.485 Y0.184 Z-0.696 I0.708 J0.184 F333.33
X0.045 Y0 Z-0.77 I-0.708 J-0.184
X0.879 I0.417 J0 F1000
X-0.879 I-0.879 J0
X1.803 I1.341 J0
X-1.803 I-1.803 J0
X1.803 I1.803 J0
G2 X2.152 Y0.618 I0.722 J0
G3 X2.347 Y1.301 I-0.27 J0.446
G1 X2.196 Y1.595
X1.595 Y2.196
X0.839 Y2.581
X0 Y2.714
X-0.827 Y2.583
X-1.016 Y2.491
X-1.595 Y2.196
X-2.196 Y1.595
X-2.581 Y0.839
X-2.714 Y0
X-2.581 Y-0.839
X-2.196 Y-1.595
X-1.595 Y-2.196
X-0.839 Y-2.581
X0 Y-2.714
X0.827 Y-2.583
X1.016 Y-2.491
X1.595 Y-2.196
X2.196 Y-1.595
X2.581 Y-0.839
X2.714 Y0
X2.583 Y0.827
X2.491 Y1.016
X2.346 Y1.3
X2.329 Y1.322
X2.305 Y1.337
X2.278 Y1.342
X2.251 Y1.336
X2.227 Y1.321
X1.956 Y1.071
X0.17 Y-0.138
X0.082 Y-0.161
X0.071 Y-0.17
X0.069 Y-0.184
G3 X1.485 Y0.184 Z-0.85 I0.708 J0.184 F333.33
X0.045 Y0 Z-0.924 I-0.708 J-0.184
X0.879 I0.417 J0 F1000
X-0.879 I-0.879 J0
X1.803 I1.341 J0
X-1.803 I-1.803 J0
X1.803 I1.803 J0
G2 X2.152 Y0.618 I0.722 J0
G3 X2.347 Y1.301 I-0.27 J0.446
G1 X2.196 Y1.595
X1.595 Y2.196
X0.839 Y2.581
X0 Y2.714
X-0.827 Y2.583
X-1.016 Y2.491
X-1.595 Y2.196
X-2.196 Y1.595
X-2.581 Y0.839
X-2.714 Y0
X-2.581 Y-0.839
X-2.196 Y-1.595
X-1.595 Y-2.196
X-0.839 Y-2.581
X0 Y-2.714
X0.827 Y-2.583
X1.016 Y-2.491
X1.595 Y-2.196
X2.196 Y-1.595
X2.581 Y-0.839
X2.714 Y0
X2.583 Y0.827
X2.491 Y1.016
X2.346 Y1.3
X2.329 Y1.322
X2.305 Y1.337
X2.278 Y1.342
X2.251 Y1.336
X2.227 Y1.321
X1.956 Y1.071
X0.17 Y-0.138
X0.082 Y-0.161
X0.071 Y-0.17
X0.069 Y-0.184
G3 X1.485 Y0.184 Z-1.004 I0.708 J0.184 F333.33
X0.045 Y0 Z-1.078 I-0.708 J-0.184
X0.879 I0.417 J0 F1000
X-0.879 I-0.879 J0
X1.803 I1.341 J0
X-1.803 I-1.803 J0
X1.803 I1.803 J0
G2 X2.152 Y0.618 I0.722 J0
G3 X2.347 Y1.301 I-0.27 J0.446
G1 X2.196 Y1.595
X1.595 Y2.196
X0.839 Y2.581
X0 Y2.714
X-0.827 Y2.583
X-1.016 Y2.491
X-1.595 Y2.196
X-2.196 Y1.595
X-2.581 Y0.839
X-2.714 Y0
X-2.581 Y-0.839
X-2.196 Y-1.595
X-1.595 Y-2.196
X-0.839 Y-2.581
X0 Y-2.714
X0.827 Y-2.583
X1.016 Y-2.491
X1.595 Y-2.196
X2.196 Y-1.595
X2.581 Y-0.839
X2.714 Y0
X2.583 Y0.827
X2.491 Y1.016
X2.346 Y1.3
X2.329 Y1.322
X2.305 Y1.337
X2.278 Y1.342
X2.251 Y1.336
X2.227 Y1.321
X1.956 Y1.071
X0.17 Y-0.138
X0.082 Y-0.161
X0.071 Y-0.17
X0.069 Y-0.184
G3 X1.485 Y0.184 Z-1.158 I0.708 J0.184 F333.33
X0.045 Y0 Z-1.232 I-0.708 J-0.184
X0.879 I0.417 J0 F1000
X-0.879 I-0.879 J0
X1.803 I1.341 J0
X-1.803 I-1.803 J0
X1.803 I1.803 J0
G2 X2.152 Y0.618 I0.722 J0
G3 X2.347 Y1.301 I-0.27 J0.446
G1 X2.196 Y1.595
X1.595 Y2.196
X0.839 Y2.581
X0 Y2.714
X-0.827 Y2.583
X-1.016 Y2.491
X-1.595 Y2.196
X-2.196 Y1.595
X-2.581 Y0.839
X-2.714 Y0
X-2.581 Y-0.839
X-2.196 Y-1.595
X-1.595 Y-2.196
X-0.839 Y-2.581
X0 Y-2.714
X0.827 Y-2.583
X1.016 Y-2.491
X1.595 Y-2.196
X2.196 Y-1.595
X2.581 Y-0.839
X2.714 Y0
X2.583 Y0.827
X2.491 Y1.016
X2.346 Y1.3
X2.329 Y1.322
X2.305 Y1.337
X2.278 Y1.342
X2.251 Y1.336
X2.227 Y1.321
X1.956 Y1.071
X0.17 Y-0.138
X0.082 Y-0.161
X0.071 Y-0.17
X0.069 Y-0.184
G3 X1.485 Y0.184 Z-1.312 I0.708 J0.184 F333.33
X0.045 Y0 Z-1.386 I-0.708 J-0.184
X0.879 I0.417 J0 F1000
X-0.879 I-0.879 J0
X1.803 I1.341 J0
X-1.803 I-1.803 J0
X1.803 I1.803 J0
G2 X2.152 Y0.618 I0.722 J0
G3 X2.347 Y1.301 I-0.27 J0.446
G1 X2.196 Y1.595
X1.595 Y2.196
X0.839 Y2.581
X0 Y2.714
X-0.827 Y2.583
X-1.016 Y2.491
X-1.595 Y2.196
X-2.196 Y1.595
X-2.581 Y0.839
X-2.714 Y0
X-2.581 Y-0.839
X-2.196 Y-1.595
X-1.595 Y-2.196
X-0.839 Y-2.581
X0 Y-2.714
X0.827 Y-2.583
X1.016 Y-2.491
X1.595 Y-2.196
X2.196 Y-1.595
X2.581 Y-0.839
X2.714 Y0
X2.583 Y0.827
X2.491 Y1.016
X2.346 Y1.3
X2.329 Y1.322
X2.305 Y1.337
X2.278 Y1.342
X2.251 Y1.336
X2.227 Y1.321
X1.956 Y1.071
X0.17 Y-0.138
X0.082 Y-0.161
X0.071 Y-0.17
X0.069 Y-0.184
G3 X1.485 Y0.184 Z-1.466 I0.708 J0.184 F333.33
X0.045 Y0 Z-1.54 I-0.708 J-0.184
X0.879 I0.417 J0 F1000
X-0.879 I-0.879 J0
X1.803 I1.341 J0
X-1.803 I-1.803 J0
X1.803 I1.803 J0
G2 X2.152 Y0.618 I0.722 J0
G3 X2.347 Y1.301 I-0.27 J0.446
G1 X2.196 Y1.595
X1.595 Y2.196
X0.839 Y2.581
X0 Y2.714
X-0.827 Y2.583
X-1.016 Y2.491
X-1.595 Y2.196
X-2.196 Y1.595
X-2.581 Y0.839
X-2.714 Y0
X-2.581 Y-0.839
X-2.196 Y-1.595
X-1.595 Y-2.196
X-0.839 Y-2.581
X0 Y-2.714
X0.827 Y-2.583
X1.016 Y-2.491
X1.595 Y-2.196
X2.196 Y-1.595
X2.581 Y-0.839
X2.714 Y0
X2.583 Y0.827
X2.491 Y1.016
X2.346 Y1.3
X2.329 Y1.322
X2.305 Y1.337
X2.278 Y1.342
X2.251 Y1.336
X2.227 Y1.321
X1.956 Y1.071
X0.17 Y-0.138
X0.082 Y-0.161
X0.071 Y-0.17
X0.069 Y-0.184
G3 X1.485 Y0.184 Z-1.62 I0.708 J0.184 F333.33
X0.045 Y0 Z-1.694 I-0.708 J-0.184
X0.879 I0.417 J0 F1000
X-0.879 I-0.879 J0
X1.803 I1.341 J0
X-1.803 I-1.803 J0
X1.803 I1.803 J0
G2 X2.152 Y0.618 I0.722 J0
G3 X2.347 Y1.301 I-0.27 J0.446
G1 X2.196 Y1.595
X1.595 Y2.196
X0.839 Y2.581
X0 Y2.714
X-0.827 Y2.583
X-1.016 Y2.491
X-1.595 Y2.196
X-2.196 Y1.595
X-2.581 Y0.839
X-2.714 Y0
X-2.581 Y-0.839
X-2.196 Y-1.595
X-1.595 Y-2.196
X-0.839 Y-2.581
X0 Y-2.714
X0.827 Y-2.583
X1.016 Y-2.491
X1.595 Y-2.196
X2.196 Y-1.595
X2.581 Y-0.839
X2.714 Y0
X2.583 Y0.827
X2.491 Y1.016
X2.346 Y1.3
X2.329 Y1.322
X2.305 Y1.337
X2.278 Y1.342
X2.251 Y1.336
X2.227 Y1.321
X1.956 Y1.071
X0.17 Y-0.138
X0.082 Y-0.161
X0.071 Y-0.17
X0.069 Y-0.184
G3 X1.485 Y0.184 Z-1.774 I0.708 J0.184 F333.33
X0.045 Y0 Z-1.848 I-0.708 J-0.184
X0.879 I0.417 J0 F1000
X-0.879 I-0.879 J0
X1.803 I1.341 J0
X-1.803 I-1.803 J0
X1.803 I1.803 J0
G2 X2.152 Y0.618 I0.722 J0
G3 X2.347 Y1.301 I-0.27 J0.446
G1 X2.196 Y1.595
X1.595 Y2.196
X0.839 Y2.581
X0 Y2.714
X-0.827 Y2.583
X-1.016 Y2.491
X-1.595 Y2.196
X-2.196 Y1.595
X-2.581 Y0.839
X-2.714 Y0
X-2.581 Y-0.839
X-2.196 Y-1.595
X-1.595 Y-2.196
X-0.839 Y-2.581
X0 Y-2.714
X0.827 Y-2.583
X1.016 Y-2.491
X1.595 Y-2.196
X2.196 Y-1.595
X2.581 Y-0.839
X2.714 Y0
X2.583 Y0.827
X2.491 Y1.016
X2.346 Y1.3
X2.329 Y1.322
X2.305 Y1.337
X2.278 Y1.342
X2.251 Y1.336
X2.227 Y1.321
X1.956 Y1.071
X0.17 Y-0.138
X0.082 Y-0.161
X0.071 Y-0.17
X0.069 Y-0.184
G3 X1.485 Y0.184 Z-1.928 I0.708 J0.184 F333.33
X0.045 Y0 Z-2.002 I-0.708 J-0.184
X0.879 I0.417 J0 F1000
X-0.879 I-0.879 J0
X1.803 I1.341 J0
X-1.803 I-1.803 J0
X1.803 I1.803 J0
G2 X2.152 Y0.618 I0.722 J0
G3 X2.347 Y1.301 I-0.27 J0.446
G1 X2.196 Y1.595
X1.595 Y2.196
X0.839 Y2.581
X0 Y2.714
X-0.827 Y2.583
X-1.016 Y2.491
X-1.595 Y2.196
X-2.196 Y1.595
X-2.581 Y0.839
X-2.714 Y0
X-2.581 Y-0.839
X-2.196 Y-1.595
X-1.595 Y-2.196
X-0.839 Y-2.581
X0 Y-2.714
X0.827 Y-2.583
X1.016 Y-2.491
X1.595 Y-2.196
X2.196 Y-1.595
X2.581 Y-0.839
X2.714 Y0
X2.583 Y0.827
X2.491 Y1.016
X2.346 Y1.3
X2.329 Y1.322
X2.305 Y1.337
X2.278 Y1.342
X2.251 Y1.336
X2.227 Y1.321
X1.956 Y1.071
X0.17 Y-0.138
X0.082 Y-0.161
X0.071 Y-0.17
X0.069 Y-0.184
G3 X1.485 Y0.184 Z-2.082 I0.708 J0.184 F333.33
X0.045 Y0 Z-2.156 I-0.708 J-0.184
X0.879 I0.417 J0 F1000
X-0.879 I-0.879 J0
X1.803 I1.341 J0
X-1.803 I-1.803 J0
X1.803 I1.803 J0
G2 X2.152 Y0.618 I0.722 J0
G3 X2.347 Y1.301 I-0.27 J0.446
G1 X2.196 Y1.595
X1.595 Y2.196
X0.839 Y2.581
X0 Y2.714
X-0.827 Y2.583
X-1.016 Y2.491
X-1.595 Y2.196
X-2.196 Y1.595
X-2.581 Y0.839
X-2.714 Y0
X-2.581 Y-0.839
X-2.196 Y-1.595
X-1.595 Y-2.196
X-0.839 Y-2.581
X0 Y-2.714
X0.827 Y-2.583
X1.016 Y-2.491
X1.595 Y-2.196
X2.196 Y-1.595
X2.581 Y-0.839
X2.714 Y0
X2.583 Y0.827
X2.491 Y1.016
X2.346 Y1.3
X2.329 Y1.322
X2.305 Y1.337
X2.278 Y1.342
X2.251 Y1.336
X2.227 Y1.321
X1.956 Y1.071
X0.17 Y-0.138
X0.082 Y-0.161
X0.071 Y-0.17
X0.069 Y-0.184
G3 X1.485 Y0.184 Z-2.236 I0.708 J0.184 F333.33
X0.045 Y0 Z-2.31 I-0.708 J-0.184
X0.879 I0.417 J0 F1000
X-0.879 I-0.879 J0
X1.803 I1.341 J0
X-1.803 I-1.803 J0
X1.803 I1.803 J0
G2 X2.152 Y0.618 I0.722 J0
G3 X2.347 Y1.301 I-0.27 J0.446
G1 X2.196 Y1.595
X1.595 Y2.196
X0.839 Y2.581
X0 Y2.714
X-0.827 Y2.583
X-1.016 Y2.491
X-1.595 Y2.196
X-2.196 Y1.595
X-2.581 Y0.839
X-2.714 Y0
X-2.581 Y-0.839
X-2.196 Y-1.595
X-1.595 Y-2.196
X-0.839 Y-2.581
X0 Y-2.714
X0.827 Y-2.583
X1.016 Y-2.491
X1.595 Y-2.196
X2.196 Y-1.595
X2.581 Y-0.839
X2.714 Y0
X2.583 Y0.827
X2.491 Y1.016
X2.346 Y1.3
X2.329 Y1.322
X2.305 Y1.337
X2.278 Y1.342
X2.251 Y1.336
X2.227 Y1.321
X1.956 Y1.071
X0.17 Y-0.138
X0.082 Y-0.161
X0.071 Y-0.17
X0.069 Y-0.184
G3 X1.485 Y0.184 Z-2.39 I0.708 J0.184 F333.33
X0.045 Y0 Z-2.464 I-0.708 J-0.184
X0.879 I0.417 J0 F1000
X-0.879 I-0.879 J0
X1.803 I1.341 J0
X-1.803 I-1.803 J0
X1.803 I1.803 J0
G2 X2.152 Y0.618 I0.722 J0
G3 X2.347 Y1.301 I-0.27 J0.446
G1 X2.196 Y1.595
X1.595 Y2.196
X0.839 Y2.581
X0 Y2.714
X-0.827 Y2.583
X-1.016 Y2.491
X-1.595 Y2.196
X-2.196 Y1.595
X-2.581 Y0.839
X-2.714 Y0
X-2.581 Y-0.839
X-2.196 Y-1.595
X-1.595 Y-2.196
X-0.839 Y-2.581
X0 Y-2.714
X0.827 Y-2.583
X1.016 Y-2.491
X1.595 Y-2.196
X2.196 Y-1.595
X2.581 Y-0.839
X2.714 Y0
X2.583 Y0.827
X2.491 Y1.016
X2.346 Y1.3
X2.329 Y1.322
X2.305 Y1.337
X2.278 Y1.342
X2.251 Y1.336
X2.227 Y1.321
X1.956 Y1.071
X0.17 Y-0.138
X0.082 Y-0.161
X0.071 Y-0.17
X0.069 Y-0.184
G3 X1.485 Y0.184 Z-2.544 I0.708 J0.184 F333.33
X0.045 Y0 Z-2.618 I-0.708 J-0.184
X0.879 I0.417 J0 F1000
X-0.879 I-0.879 J0
X1.803 I1.341 J0
X-1.803 I-1.803 J0
X1.803 I1.803 J0
G2 X2.152 Y0.618 I0.722 J0
G3 X2.347 Y1.301 I-0.27 J0.446
G1 X2.196 Y1.595
X1.595 Y2.196
X0.839 Y2.581
X0 Y2.714
X-0.827 Y2.583
X-1.016 Y2.491
X-1.595 Y2.196
X-2.196 Y1.595
X-2.581 Y0.839
X-2.714 Y0
X-2.581 Y-0.839
X-2.196 Y-1.595
X-1.595 Y-2.196
X-0.839 Y-2.581
X0 Y-2.714
X0.827 Y-2.583
X1.016 Y-2.491
X1.595 Y-2.196
X2.196 Y-1.595
X2.581 Y-0.839
X2.714 Y0
X2.583 Y0.827
X2.491 Y1.016
X2.346 Y1.3
X2.329 Y1.322
X2.305 Y1.337
X2.278 Y1.342
X2.251 Y1.336
X2.227 Y1.321
X1.956 Y1.071
X0.17 Y-0.138
X0.082 Y-0.161
X0.071 Y-0.17
X0.069 Y-0.184
G3 X1.485 Y0.184 Z-2.698 I0.708 J0.184 F333.33
X0.045 Y0 Z-2.772 I-0.708 J-0.184
X0.879 I0.417 J0 F1000
X-0.879 I-0.879 J0
X1.803 I1.341 J0
X-1.803 I-1.803 J0
X1.803 I1.803 J0
G2 X2.152 Y0.618 I0.722 J0
G3 X2.347 Y1.301 I-0.27 J0.446
G1 X2.196 Y1.595
X1.595 Y2.196
X0.839 Y2.581
X0 Y2.714
X-0.827 Y2.583
X-1.016 Y2.491
X-1.595 Y2.196
X-2.196 Y1.595
X-2.581 Y0.839
X-2.714 Y0
X-2.581 Y-0.839
X-2.196 Y-1.595
X-1.595 Y-2.196
X-0.839 Y-2.581
X0 Y-2.714
X0.827 Y-2.583
X1.016 Y-2.491
X1.595 Y-2.196
X2.196 Y-1.595
X2.581 Y-0.839
X2.714 Y0
X2.583 Y0.827
X2.491 Y1.016
X2.346 Y1.3
X2.329 Y1.322
X2.305 Y1.337
X2.278 Y1.342
X2.251 Y1.336
X2.227 Y1.321
X1.956 Y1.071
X0.17 Y-0.138
X0.082 Y-0.161
X0.071 Y-0.17
X0.069 Y-0.184
G3 X1.485 Y0.184 Z-2.852 I0.708 J0.184 F333.33
X0.045 Y0 Z-2.926 I-0.708 J-0.184
X0.879 I0.417 J0 F1000
X-0.879 I-0.879 J0
X1.803 I1.341 J0
X-1.803 I-1.803 J0
X1.803 I1.803 J0
G2 X2.152 Y0.618 I0.722 J0
G3 X2.347 Y1.301 I-0.27 J0.446
G1 X2.196 Y1.595
X1.595 Y2.196
X0.839 Y2.581
X0 Y2.714
X-0.827 Y2.583
X-1.016 Y2.491
X-1.595 Y2.196
X-2.196 Y1.595
X-2.581 Y0.839
X-2.714 Y0
X-2.581 Y-0.839
X-2.196 Y-1.595
X-1.595 Y-2.196
X-0.839 Y-2.581
X0 Y-2.714
X0.827 Y-2.583
X1.016 Y-2.491
X1.595 Y-2.196
X2.196 Y-1.595
X2.581 Y-0.839
X2.714 Y0
X2.583 Y0.827
X2.491 Y1.016
X2.346 Y1.3
X2.329 Y1.322
X2.305 Y1.337
X2.278 Y1.342
X2.251 Y1.336
X2.227 Y1.321
X1.956 Y1.071
X0.17 Y-0.138
X0.082 Y-0.161
X0.071 Y-0.17
X0.069 Y-0.184
G3 X1.485 Y0.184 Z-3.006 I0.708 J0.184 F333.33
X0.045 Y0 Z-3.08 I-0.708 J-0.184
X0.879 I0.417 J0 F1000
X-0.879 I-0.879 J0
X1.803 I1.341 J0
X-1.803 I-1.803 J0
X1.803 I1.803 J0
G2 X2.152 Y0.618 I0.722 J0
G3 X2.347 Y1.301 I-0.27 J0.446
G1 X2.196 Y1.595
X1.595 Y2.196
X0.839 Y2.581
X0 Y2.714
X-0.827 Y2.583
X-1.016 Y2.491
X-1.595 Y2.196
X-2.196 Y1.595
X-2.581 Y0.839
X-2.714 Y0
X-2.581 Y-0.839
X-2.196 Y-1.595
X-1.595 Y-2.196
X-0.839 Y-2.581
X0 Y-2.714
X0.827 Y-2.583
X1.016 Y-2.491
X1.595 Y-2.196
X2.196 Y-1.595
X2.581 Y-0.839
X2.714 Y0
X2.583 Y0.827
X2.491 Y1.016
X2.346 Y1.3
X2.329 Y1.322
X2.305 Y1.337
X2.278 Y1.342
X2.251 Y1.336
X2.227 Y1.321
X1.956 Y1.071
X0.17 Y-0.138
X0.082 Y-0.161
X0.071 Y-0.17
X0.069 Y-0.184
G3 X1.485 Y0.184 Z-3.16 I0.708 J0.184 F333.33
X0.045 Y0 Z-3.234 I-0.708 J-0.184
X0.879 I0.417 J0 F1000
X-0.879 I-0.879 J0
X1.803 I1.341 J0
X-1.803 I-1.803 J0
X1.803 I1.803 J0
G2 X2.152 Y0.618 I0.722 J0
G3 X2.347 Y1.301 I-0.27 J0.446
G1 X2.196 Y1.595
X1.595 Y2.196
X0.839 Y2.581
X0 Y2.714
X-0.827 Y2.583
X-1.016 Y2.491
X-1.595 Y2.196
X-2.196 Y1.595
X-2.581 Y0.839
X-2.714 Y0
X-2.581 Y-0.839
X-2.196 Y-1.595
X-1.595 Y-2.196
X-0.839 Y-2.581
X0 Y-2.714
X0.827 Y-2.583
X1.016 Y-2.491
X1.595 Y-2.196
X2.196 Y-1.595
X2.581 Y-0.839
X2.714 Y0
X2.583 Y0.827
X2.491 Y1.016
X2.346 Y1.3
X2.329 Y1.322
X2.305 Y1.337
X2.278 Y1.342
X2.251 Y1.336
X2.227 Y1.321
X1.956 Y1.071
X0.17 Y-0.138
X0.082 Y-0.161
X0.071 Y-0.17
X0.069 Y-0.184
G3 X1.485 Y0.184 Z-3.314 I0.708 J0.184 F333.33
X0.045 Y0 Z-3.388 I-0.708 J-0.184
X0.879 I0.417 J0 F1000
X-0.879 I-0.879 J0
X1.803 I1.341 J0
X-1.803 I-1.803 J0
X1.803 I1.803 J0
G2 X2.152 Y0.618 I0.722 J0
G3 X2.347 Y1.301 I-0.27 J0.446
G1 X2.196 Y1.595
X1.595 Y2.196
X0.839 Y2.581
X0 Y2.714
X-0.827 Y2.583
X-1.016 Y2.491
X-1.595 Y2.196
X-2.196 Y1.595
X-2.581 Y0.839
X-2.714 Y0
X-2.581 Y-0.839
X-2.196 Y-1.595
X-1.595 Y-2.196
X-0.839 Y-2.581
X0 Y-2.714
X0.827 Y-2.583
X1.016 Y-2.491
X1.595 Y-2.196
X2.196 Y-1.595
X2.581 Y-0.839
X2.714 Y0
X2.583 Y0.827
X2.491 Y1.016
X2.346 Y1.3
X2.329 Y1.322
X2.305 Y1.337
X2.278 Y1.342
X2.251 Y1.336
X2.227 Y1.321
X1.956 Y1.071
X0.17 Y-0.138
X0.082 Y-0.161
X0.071 Y-0.17
X0.069 Y-0.184
G3 X1.485 Y0.184 Z-3.468 I0.708 J0.184 F333.33
X0.045 Y0 Z-3.542 I-0.708 J-0.184
X0.879 I0.417 J0 F1000
X-0.879 I-0.879 J0
X1.803 I1.341 J0
X-1.803 I-1.803 J0
X1.803 I1.803 J0
G2 X2.152 Y0.618 I0.722 J0
G3 X2.347 Y1.301 I-0.27 J0.446
G1 X2.196 Y1.595
X1.595 Y2.196
X0.839 Y2.581
X0 Y2.714
X-0.827 Y2.583
X-1.016 Y2.491
X-1.595 Y2.196
X-2.196 Y1.595
X-2.581 Y0.839
X-2.714 Y0
X-2.581 Y-0.839
X-2.196 Y-1.595
X-1.595 Y-2.196
X-0.839 Y-2.581
X0 Y-2.714
X0.827 Y-2.583
X1.016 Y-2.491
X1.595 Y-2.196
X2.196 Y-1.595
X2.581 Y-0.839
X2.714 Y0
X2.583 Y0.827
X2.491 Y1.016
X2.346 Y1.3
X2.329 Y1.322
X2.305 Y1.337
X2.278 Y1.342
X2.251 Y1.336
X2.227 Y1.321
X1.956 Y1.071
X0.17 Y-0.138
X0.082 Y-0.161
X0.071 Y-0.17
X0.069 Y-0.184
G3 X1.485 Y0.184 Z-3.622 I0.708 J0.184 F333.33
X0.045 Y0 Z-3.696 I-0.708 J-0.184
X0.879 I0.417 J0 F1000
X-0.879 I-0.879 J0
X1.803 I1.341 J0
X-1.803 I-1.803 J0
X1.803 I1.803 J0
G2 X2.152 Y0.618 I0.722 J0
G3 X2.347 Y1.301 I-0.27 J0.446
G1 X2.196 Y1.595
X1.595 Y2.196
X0.839 Y2.581
X0 Y2.714
X-0.827 Y2.583
X-1.016 Y2.491
X-1.595 Y2.196
X-2.196 Y1.595
X-2.581 Y0.839
X-2.714 Y0
X-2.581 Y-0.839
X-2.196 Y-1.595
X-1.595 Y-2.196
X-0.839 Y-2.581
X0 Y-2.714
X0.827 Y-2.583
X1.016 Y-2.491
X1.595 Y-2.196
X2.196 Y-1.595
X2.581 Y-0.839
X2.714 Y0
X2.583 Y0.827
X2.491 Y1.016
X2.346 Y1.3
X2.329 Y1.322
X2.305 Y1.337
X2.278 Y1.342
X2.251 Y1.336
X2.227 Y1.321
X1.956 Y1.071
X0.17 Y-0.138
X0.082 Y-0.161
X0.071 Y-0.17
X0.069 Y-0.184
G3 X1.485 Y0.184 Z-3.776 I0.708 J0.184 F333.33
X0.045 Y0 Z-3.85 I-0.708 J-0.184
X0.879 I0.417 J0 F1000
X-0.879 I-0.879 J0
X1.803 I1.341 J0
X-1.803 I-1.803 J0
X1.803 I1.803 J0
G2 X2.152 Y0.618 I0.722 J0
G3 X2.347 Y1.301 I-0.27 J0.446
G1 X2.196 Y1.595
X1.595 Y2.196
X0.839 Y2.581
X0 Y2.714
X-0.827 Y2.583
X-1.016 Y2.491
X-1.595 Y2.196
X-2.196 Y1.595
X-2.581 Y0.839
X-2.714 Y0
X-2.581 Y-0.839
X-2.196 Y-1.595
X-1.595 Y-2.196
X-0.839 Y-2.581
X0 Y-2.714
X0.827 Y-2.583
X1.016 Y-2.491
X1.595 Y-2.196
X2.196 Y-1.595
X2.581 Y-0.839
X2.714 Y0
X2.583 Y0.827
X2.491 Y1.016
X2.346 Y1.3
X2.329 Y1.322
X2.305 Y1.337
X2.278 Y1.342
X2.251 Y1.336
X2.227 Y1.321
X1.956 Y1.071
X0.17 Y-0.138
X0.082 Y-0.161
X0.071 Y-0.17
X0.069 Y-0.184
G3 X1.485 Y0.184 Z-3.93 I0.708 J0.184 F333.33
X0.045 Y0 Z-4.004 I-0.708 J-0.184
X0.879 I0.417 J0 F1000
X-0.879 I-0.879 J0
X1.803 I1.341 J0
X-1.803 I-1.803 J0
X1.803 I1.803 J0
G2 X2.152 Y0.618 I0.722 J0
G3 X2.347 Y1.301 I-0.27 J0.446
G1 X2.196 Y1.595
X1.595 Y2.196
X0.839 Y2.581
X0 Y2.714
X-0.827 Y2.583
X-1.016 Y2.491
X-1.595 Y2.196
X-2.196 Y1.595
X-2.581 Y0.839
X-2.714 Y0
X-2.581 Y-0.839
X-2.196 Y-1.595
X-1.595 Y-2.196
X-0.839 Y-2.581
X0 Y-2.714
X0.827 Y-2.583
X1.016 Y-2.491
X1.595 Y-2.196
X2.196 Y-1.595
X2.581 Y-0.839
X2.714 Y0
X2.583 Y0.827
X2.491 Y1.016
X2.346 Y1.3
X2.329 Y1.322
X2.305 Y1.337
X2.278 Y1.342
X2.251 Y1.336
X2.227 Y1.321
X1.956 Y1.071
X0.17 Y-0.138
X0.082 Y-0.161
X0.071 Y-0.17
X0.069 Y-0.184
G3 X1.485 Y0.184 Z-4.084 I0.708 J0.184 F333.33
X0.045 Y0 Z-4.158 I-0.708 J-0.184
X0.879 I0.417 J0 F1000
X-0.879 I-0.879 J0
X1.803 I1.341 J0
X-1.803 I-1.803 J0
X1.803 I1.803 J0
G2 X2.152 Y0.618 I0.722 J0
G3 X2.347 Y1.301 I-0.27 J0.446
G1 X2.196 Y1.595
X1.595 Y2.196
X0.839 Y2.581
X0 Y2.714
X-0.827 Y2.583
X-1.016 Y2.491
X-1.595 Y2.196
X-2.196 Y1.595
X-2.581 Y0.839
X-2.714 Y0
X-2.581 Y-0.839
X-2.196 Y-1.595
X-1.595 Y-2.196
X-0.839 Y-2.581
X0 Y-2.714
X0.827 Y-2.583
X1.016 Y-2.491
X1.595 Y-2.196
X2.196 Y-1.595
X2.581 Y-0.839
X2.714 Y0
X2.583 Y0.827
X2.491 Y1.016
X2.346 Y1.3
X2.329 Y1.322
X2.305 Y1.337
X2.278 Y1.342
X2.251 Y1.336
X2.227 Y1.321
X1.956 Y1.071
X0.17 Y-0.138
X0.082 Y-0.161
X0.071 Y-0.17
X0.069 Y-0.184
G3 X1.485 Y0.184 Z-4.238 I0.708 J0.184 F333.33
X0.045 Y0 Z-4.312 I-0.708 J-0.184
X0.879 I0.417 J0 F1000
X-0.879 I-0.879 J0
X1.803 I1.341 J0
X-1.803 I-1.803 J0
X1.803 I1.803 J0
G2 X2.152 Y0.618 I0.722 J0
G3 X2.347 Y1.301 I-0.27 J0.446
G1 X2.196 Y1.595
X1.595 Y2.196
X0.839 Y2.581
X0 Y2.714
X-0.827 Y2.583
X-1.016 Y2.491
X-1.595 Y2.196
X-2.196 Y1.595
X-2.581 Y0.839
X-2.714 Y0
X-2.581 Y-0.839
X-2.196 Y-1.595
X-1.595 Y-2.196
X-0.839 Y-2.581
X0 Y-2.714
X0.827 Y-2.583
X1.016 Y-2.491
X1.595 Y-2.196
X2.196 Y-1.595
X2.581 Y-0.839
X2.714 Y0
X2.583 Y0.827
X2.491 Y1.016
X2.346 Y1.3
X2.329 Y1.322
X2.305 Y1.337
X2.278 Y1.342
X2.251 Y1.336
X2.227 Y1.321
X1.956 Y1.071
X0.17 Y-0.138
X0.082 Y-0.161
X0.071 Y-0.17
X0.069 Y-0.184
G3 X1.485 Y0.184 Z-4.392 I0.708 J0.184 F333.33
X0.045 Y0 Z-4.466 I-0.708 J-0.184
X0.879 I0.417 J0 F1000
X-0.879 I-0.879 J0
X1.803 I1.341 J0
X-1.803 I-1.803 J0
X1.803 I1.803 J0
G2 X2.152 Y0.618 I0.722 J0
G3 X2.347 Y1.301 I-0.27 J0.446
G1 X2.196 Y1.595
X1.595 Y2.196
X0.839 Y2.581
X0 Y2.714
X-0.827 Y2.583
X-1.016 Y2.491
X-1.595 Y2.196
X-2.196 Y1.595
X-2.581 Y0.839
X-2.714 Y0
X-2.581 Y-0.839
X-2.196 Y-1.595
X-1.595 Y-2.196
X-0.839 Y-2.581
X0 Y-2.714
X0.827 Y-2.583
X1.016 Y-2.491
X1.595 Y-2.196
X2.196 Y-1.595
X2.581 Y-0.839
X2.714 Y0
X2.583 Y0.827
X2.491 Y1.016
X2.346 Y1.3
X2.329 Y1.322
X2.305 Y1.337
X2.278 Y1.342
X2.251 Y1.336
X2.227 Y1.321
X1.956 Y1.071
X0.17 Y-0.138
X0.082 Y-0.161
X0.071 Y-0.17
X0.069 Y-0.184
G3 X1.485 Y0.184 Z-4.546 I0.708 J0.184 F333.33
X0.045 Y0 Z-4.62 I-0.708 J-0.184
X0.879 I0.417 J0 F1000
X-0.879 I-0.879 J0
X1.803 I1.341 J0
X-1.803 I-1.803 J0
X1.803 I1.803 J0
G2 X2.152 Y0.618 I0.722 J0
G3 X2.347 Y1.301 I-0.27 J0.446
G1 X2.196 Y1.595
X1.595 Y2.196
X0.839 Y2.581
X0 Y2.714
X-0.827 Y2.583
X-1.016 Y2.491
X-1.595 Y2.196
X-2.196 Y1.595
X-2.581 Y0.839
X-2.714 Y0
X-2.581 Y-0.839
X-2.196 Y-1.595
X-1.595 Y-2.196
X-0.839 Y-2.581
X0 Y-2.714
X0.827 Y-2.583
X1.016 Y-2.491
X1.595 Y-2.196
X2.196 Y-1.595
X2.581 Y-0.839
X2.714 Y0
X2.583 Y0.827
X2.491 Y1.016
X2.346 Y1.3
X2.324 Y1.327
X2.292 Y1.341
X2.257 Y1.34
X2.226 Y1.323
X1.281 Y0.486
X1.265 Y0.46
X1.261 Y0.429
X1.307 Y-0.249
X1.317 Y-0.282
X1.34 Y-0.307
X1.372 Y-0.32
X1.406 Y-0.318
X1.436 Y-0.301
X1.455 Y-0.272
G3 X0.099 Y0.272 Z-4.7 I-0.678 J0.272 F333.33
X0.046 Y0 Z-4.71 I0.678 J-0.272
X0.878 I0.416 J0 F1000
X-0.878 I-0.878 J0
X1.802 I1.34 J0
X-1.802 I-1.802 J0
X1.802 I1.802 J0
G2 X2.151 Y0.619 I0.723 J0
G3 X2.345 Y1.3 I-0.269 J0.445
G1 X2.196 Y1.595
X1.595 Y2.196
X0.839 Y2.581
X0 Y2.714
X-0.827 Y2.583
X-1.016 Y2.491
X-1.595 Y2.196
X-2.196 Y1.595
X-2.581 Y0.839
X-2.714 Y0
X-2.581 Y-0.839
X-2.196 Y-1.595
X-1.595 Y-2.196
X-0.839 Y-2.581
X0 Y-2.714
X0.827 Y-2.583
X1.016 Y-2.491
X1.595 Y-2.196
X2.196 Y-1.595
X2.581 Y-0.839
X2.714 Y0
X2.583 Y0.827
X2.491 Y1.016
X2.346 Y1.3
X2.324 Y1.327
X2.292 Y1.341
X2.257 Y1.34
X2.226 Y1.323
X1.281 Y0.486
X1.265 Y0.46
X1.261 Y0.429
X1.307 Y-0.249
X1.317 Y-0.282
X1.34 Y-0.307
X1.372 Y-0.32
X1.406 Y-0.318
X1.436 Y-0.301
X1.455 Y-0.272
G3 X0.099 Y0.272 Z-4.79 I-0.678 J0.272 F333.33
X0.046 Y0 Z-4.8 I0.678 J-0.272
X0.878 I0.416 J0 F1000
X-0.878 I-0.878 J0
X1.802 I1.34 J0
X-1.802 I-1.802 J0
X1.802 I1.802 J0
G2 X2.151 Y0.619 I0.723 J0
G3 X2.345 Y1.3 I-0.269 J0.445
G1 X2.196 Y1.595
X1.595 Y2.196
X0.839 Y2.581
X0 Y2.714
X-0.827 Y2.583
X-1.016 Y2.491
X-1.595 Y2.196
X-2.196 Y1.595
X-2.581 Y0.839
X-2.714 Y0
X-2.581 Y-0.839
X-2.196 Y-1.595
X-1.595 Y-2.196
X-0.839 Y-2.581
X0 Y-2.714
X0.827 Y-2.583
X1.016 Y-2.491
X1.595 Y-2.196
X2.196 Y-1.595
X2.581 Y-0.839
X2.714 Y0
X2.583 Y0.827
X2.491 Y1.016
X2.346 Y1.3
X2.33 Y1.325 Z-4.794
X2.31 Y1.347 Z-4.788
X2.29 Y1.361 Z-4.772
X2.268 Y1.373 Z-4.755
X2.236 Y1.382 Z-4.705
X2.224 Y1.384 Z-4.646
Z15
M9
G28 G91 Z0
G90
G28 G91 X0 Y0
G90
M30
%
